X: 24194
T: Lord Kitchener's Pipes
R: jig
M: 6/8
K: Dmixolydian
|:E|DED {E}DEG|AGA cGE|DED {E}DEG|cGE D2 E|
DED {E}DEG|AGE cBc|ded cAG|GED {E}D2:|
|:A|d^cd edB|cBc EFG|Add edc|edB c2 A|
d^cd edB|cBc EFG|{A}GEG cGE|DED {E}D2:|

